flaticon/stationery/notebook.svg

<svg xmlns="http://www.w3.org/2000/svg" width="32" height="32" viewBox="0 0 24 24">
    <path d="M4.085938 3.828125L5.105469 3.828125 5.105469 4.851562 4.085938 4.851562zM4.085938 7.660156L5.105469 7.660156 5.105469 8.679688 4.085938 8.679688zM4.085938 11.488281L5.105469 11.488281 5.105469 12.511719 4.085938 12.511719zM4.085938 15.320312L5.105469 15.320312 5.105469 16.339844 4.085938 16.339844zM4.085938 19.148438L5.105469 19.148438 5.105469 20.171875 4.085938 20.171875zM4.085938 19.148438"/>
    <path d="M 21.957031 0 L 2.042969 0 C 1.761719 0 1.53125 0.230469 1.53125 0.511719 L 1.53125 23.488281 C 1.53125 23.769531 1.761719 24 2.042969 24 L 21.957031 24 C 22.238281 24 22.46875 23.769531 22.46875 23.488281 L 22.46875 0.511719 C 22.46875 0.230469 22.238281 0 21.957031 0 Z M 16.558594 1.742188 L 18.640625 3.828125 L 20.726562 5.910156 L 16.558594 5.910156 Z M 6.636719 22.980469 L 2.554688 22.980469 L 2.554688 1.019531 L 6.636719 1.019531 Z M 21.445312 22.980469 L 7.660156 22.980469 L 7.660156 1.019531 L 15.535156 1.019531 L 15.535156 6.421875 C 15.535156 6.703125 15.765625 6.933594 16.046875 6.933594 L 21.445312 6.933594 Z M 21.445312 5.1875 L 19.359375 3.101562 L 17.28125 1.019531 L 21.445312 1.019531 Z M 21.445312 5.1875"/>
</svg>

<svg xmlns="http://www.w3.org/2000/svg" width="32" height="32" viewBox="0 0 24 24">
    <path d="M4.086 3.828h1.02v1.024h-1.02zm0 0M4.086 7.66h1.02v1.02h-1.02zm0 0M4.086 11.488h1.02v1.024h-1.02zm0 0M4.086 15.32h1.02v1.02h-1.02zm0 0M4.086 19.148h1.02v1.024h-1.02zm0 0"/>
    <path d="M21.957 0H2.043a.513.513 0 0 0-.512.512v22.976c0 .282.23.512.512.512h19.914c.281 0 .512-.23.512-.512V.512A.513.513 0 0 0 21.957 0zm-5.398 1.742l2.082 2.086 2.086 2.082h-4.168zM6.637 22.98H2.555V1.02h4.082zm14.808 0H7.66V1.02h7.875v5.402c0 .281.23.512.512.512h5.398zm0-17.793L19.36 3.103 17.281 1.02h4.164zm0 0"/>
</svg>
